X: 17983
T: Hugh Scott
R: jig
M: 6/8
K: Gmajor
dcd fed|BdB A2 F|GFG BAG|FAd A2 A|
dcd fed|BdB A2 F|GAB Aec|ABc d2A:|
fed BdB|ABA D2 F|GFG BAG|FAd A2 A|
fed BdB|ABA D2 F|GFG BAG|FEC D2 A|
dcd fed|BdB A2 F|GFG BAG|FAd A2 D|
FEF GFG|ABd A2 G|FED CDE|D3 D3||

